contributed-vectors/glasswire.svg

<svg width="192" height="192" viewBox="0 0 192 192" fill="none" xmlns="http://www.w3.org/2000/svg">
<g clip-path="url(#clip0)">
<path d="M149.59 41.41C135.74 27.57 116.62 19 95.5 19C74.37 19 55.25 27.57 41.4 41.41C27.56 55.25 19 74.38 19 95.5V162C19 167.52 23.47 172 29 172H94.55C135.8 172 170.37 139.72 171.94 98.5C171.98 97.5 172 96.5 172 95.51C172 74.38 163.43 55.26 149.59 41.41ZM92.27 164.53C56.88 162.92 28.13 134.21 26.48 98.82C24.62 59.16 56.23 26.41 95.5 26.41C133.66 26.41 164.59 57.35 164.59 95.5C164.59 134.74 131.9 166.33 92.27 164.53Z" fill="#A0A5AF"/>
<path d="M95.5 155.97C128.891 155.97 155.96 128.901 155.96 95.51C155.96 62.1189 128.891 35.05 95.5 35.05C62.1089 35.05 35.04 62.1189 35.04 95.51C35.04 128.901 62.1089 155.97 95.5 155.97Z" fill="#CCDEFF"/>
<path opacity="0.75" d="M155.95 95.5C155.95 128.9 128.88 155.96 95.4901 155.96C81.1501 155.96 67.9901 150.98 57.6201 142.62C64.3201 140.87 69.3001 138.33 72.5101 136.4C79.5701 132.18 84.0201 127.41 87.4801 123.67C89.3601 121.63 90.3501 120.35 95.4901 113.31C96.5901 111.79 97.8801 110.02 99.4301 107.91C106.13 98.71 109.49 94.09 109.78 93.75C113.77 88.96 120.18 81.42 130.63 75.12C137.68 70.88 143.68 68.91 145.76 68.27C146.87 67.94 147.92 67.64 148.92 67.39C148.96 67.38 148.98 67.38 149.02 67.37C153.45 75.76 155.95 85.35 155.95 95.5Z" fill="#9ABEFF"/>
<path opacity="0.75" d="M150.51 120.14C141.06 141.19 119.91 155.86 95.3301 155.86C81.0501 155.86 67.9301 150.91 57.5901 142.63C43.7501 131.55 34.8701 114.51 34.8701 95.4C34.8701 95.07 34.8701 94.73 34.8801 94.41C54.0801 94.18 66.3201 98.09 74.4301 102.48C76.6801 103.7 82.7101 107.19 91.8901 111.57C93.1501 112.17 94.3501 112.74 95.4901 113.3C106.64 118.64 113.02 121.63 120.44 122.86C132.03 124.78 142.48 122.8 150.51 120.14Z" fill="#98DC9A"/>
</g>
<defs>
<clipPath id="clip0">
<rect width="192" height="192" fill="white"/>
</clipPath>
</defs>
</svg>

<svg xmlns="http://www.w3.org/2000/svg" width="192" height="192" fill="none"><g clip-path="url(#a)"><path fill="#A0A5AF" d="M149.59 41.41C135.74 27.57 116.62 19 95.5 19c-21.13 0-40.25 8.57-54.1 22.41C27.56 55.25 19 74.38 19 95.5V162c0 5.52 4.47 10 10 10h65.55c41.25 0 75.82-32.28 77.39-73.5.04-1 .06-2 .06-2.99 0-21.13-8.57-40.25-22.41-54.1ZM92.27 164.53c-35.39-1.61-64.14-30.32-65.79-65.71-1.86-39.66 29.75-72.41 69.02-72.41 38.16 0 69.09 30.94 69.09 69.09 0 39.24-32.69 70.83-72.32 69.03Z"/><path fill="#CCDEFF" d="M95.5 155.97c33.391 0 60.46-27.069 60.46-60.46 0-33.391-27.069-60.46-60.46-60.46-33.391 0-60.46 27.069-60.46 60.46 0 33.391 27.069 60.46 60.46 60.46Z"/><path fill="#9ABEFF" d="M155.95 95.5c0 33.4-27.07 60.46-60.46 60.46-14.34 0-27.5-4.98-37.87-13.34 6.7-1.75 11.68-4.29 14.89-6.22 7.06-4.22 11.51-8.99 14.97-12.73 1.88-2.04 2.87-3.32 8.01-10.36 1.1-1.52 2.39-3.29 3.94-5.4 6.7-9.2 10.06-13.82 10.35-14.16 3.99-4.79 10.4-12.33 20.85-18.63 7.05-4.24 13.05-6.21 15.13-6.85 1.11-.33 2.16-.63 3.16-.88.04-.01.06-.01.1-.02 4.43 8.39 6.93 17.98 6.93 28.13Z" opacity=".75"/><path fill="#98DC9A" d="M150.51 120.14c-9.45 21.05-30.6 35.72-55.18 35.72-14.28 0-27.4-4.95-37.74-13.23-13.84-11.08-22.72-28.12-22.72-47.23 0-.33 0-.67.01-.99 19.2-.23 31.44 3.68 39.55 8.07 2.25 1.22 8.28 4.71 17.46 9.09 1.26.6 2.46 1.17 3.6 1.73 11.15 5.34 17.53 8.33 24.95 9.56 11.59 1.92 22.04-.06 30.07-2.72Z" opacity=".75"/></g><defs><clipPath id="a"><path fill="#fff" d="M0 0h192v192H0z"/></clipPath></defs></svg>
